X:406
T:See Me Dance the Polka
M:4/4
L:1/8
K:G
Bc | d2 d2 d3 d | d2 F6 | e2 e2 f2 e2 | d6 ef |
g2 g2 g3 g | g2 A6 | c2 c2 B2 A2 | d6 Bc |
d2 d2 d3 d | d2 F6 | e2 e2 f2 e2 | d6 ef |
g2 g2 g3 g | g2 A6 | c2 c2 B2 A2 | G4 -G2 ||
z2 | D3 G B3 A | GB de d4 | D3 G B3 A | GB de d4 |
f2 ff f2 f2 | ed c2 A4 | e2 e2 e2 e2 | edce d4 |
D3 G B3 A | GB de d4 | D3 G B3 A | GB de d4 |
f2 ff f2 f2 | ed c2 A4 | d2 dd e2 f2 | g4 -g2 ||
